app/assets/img/ic-housing.svg

<svg fill="none" height="46" viewBox="0 0 46 46" width="46" xmlns="http://www.w3.org/2000/svg"><g fill="#008fff"><path d="m45.6188 15.7626-6.25-10.41668c-.375-.62917-1.0542-1.0125-1.7854-1.0125h-2.0833v-2.08334c0-1.15-.9334-2.083332-2.0834-2.083332h-2.0833c-1.15 0-2.0834.933332-2.0834 2.083332v2.08334h-12.5v-2.08334c0-1.15-.9333-2.083332-2.0833-2.083332h-2.0833c-1.15 0-2.0834.933332-2.0834 2.083332v2.08334h-2.0833c-.73125 0-1.41042.38333-1.78542 1.0125l-6.250004 10.41668c-.38750078.6437-.3958341 1.4437-.027084 2.0979.36875.6542 1.062498 1.0563 1.812498 1.0563v25c0 1.15.93334 2.0833 2.08334 2.0833h37.50007c1.15 0 2.0833-.9333 2.0833-2.0833v-25c.75 0 1.4437-.4021 1.8125-1.0563.3708-.6542.3604-1.4562-.0271-2.0979zm-36.02293-7.26251h26.80623l3.75 6.25001h-34.30624zm30.07083 33.33331h-12.5v-2.0833c0-2.3-1.8667-4.1667-4.1667-4.1667s-4.1666 1.8667-4.1666 4.1667v2.0833h-12.50004v-22.9166h33.33334z"/><path d="m10.5 21.0001h10.4167v4.1667h-10.4167z"/><path d="m25.0834 21.0001h10.4167v4.1667h-10.4167z"/><path d="m10.5 29.3334h10.4167v4.1667h-10.4167z"/><path d="m25.0834 29.3334h10.4167v4.1667h-10.4167z"/></g></svg>

<svg width="46" height="46" viewBox="0 0 46 46" fill="none" xmlns="http://www.w3.org/2000/svg">
<path d="M45.6188 15.7626L39.3688 5.34592C38.9938 4.71675 38.3146 4.33342 37.5834 4.33342H35.5001V2.25008C35.5001 1.10008 34.5667 0.166748 33.4167 0.166748H31.3334C30.1834 0.166748 29.25 1.10008 29.25 2.25008V4.33342H16.75V2.25008C16.75 1.10008 15.8167 0.166748 14.6667 0.166748H12.5834C11.4334 0.166748 10.5 1.10008 10.5 2.25008V4.33342H8.4167C7.68545 4.33342 7.00628 4.71675 6.63128 5.34592L0.381276 15.7626C-0.00622478 16.4063 -0.0145581 17.2063 0.354192 17.8605C0.722942 18.5147 1.41669 18.9168 2.16669 18.9168V43.9168C2.16669 45.0668 3.10003 46.0001 4.25003 46.0001H41.7501C42.9001 46.0001 43.8334 45.0668 43.8334 43.9168V18.9168C44.5834 18.9168 45.2771 18.5147 45.6459 17.8605C46.0167 17.2063 46.0063 16.4043 45.6188 15.7626ZM9.59587 8.50009H36.4021L40.1521 14.7501H5.84586L9.59587 8.50009ZM39.6667 41.8334H27.1667V39.7501C27.1667 37.4501 25.3 35.5834 23 35.5834C20.7 35.5834 18.8334 37.4501 18.8334 39.7501V41.8334H6.33336V18.9168H39.6667V41.8334Z" fill="#008FFF"/>
<path d="M10.5 21.0001H20.9167V25.1668H10.5V21.0001Z" fill="#008FFF"/>
<path d="M25.0834 21.0001H35.5001V25.1668H25.0834V21.0001Z" fill="#008FFF"/>
<path d="M10.5 29.3334H20.9167V33.5001H10.5V29.3334Z" fill="#008FFF"/>
<path d="M25.0834 29.3334H35.5001V33.5001H25.0834V29.3334Z" fill="#008FFF"/>
</svg>
